X: 375
%
U:~=!turn!
T: Mary Kitty
C:
O:Scotland
B:Keith Norman MacDonald : "The Skye collection of the best reels & strathspeys extant" : 1887
Z:Ralph Palmer
R:Reel
M:C
L:1/8
K:G
DG GA BA BA | GA BA AG E2 | DG GA BA BA | Gg gB A2 G2 ::
(B<d) d>e g<d e<d | (B<c) de gd ed | (B<d) d>e gd ed | [1 B<d g<d B<A G2 :| [2 d<g B<g c<A G2 |]


